!!!OTL: Et war emol e Miller stolz, S. 20
!!!id: R0046
**kern
*clefG2
*k[]
*C:
{8g
=1
16g
16g
16g
16g
8g
8g
=2
4a}
=3
{8.e
16f
=4
8.a
16g
8g
8g
=5
8g}
16r
=6
{16e
8e
8e
=7
16e
16e
16d
16e
4f
=8
8d
8f
4a
=9
8d
8f
4a}
=10
{16e
16e
16e
16e
8d
8d
=11
4.c}
==
*-
!!!minrhy: 16
!!!meters: 2/4 ]  ZZ[4
!!!cut: Et war emol e Miller stolz, S. 20
!!!reg: Luxemburg
!!!trd: D'Fraen um Kanddaaf an der aler Zeit, Luxemburg 1929
!!!rhy1: X_  XXXXX_X_  X__
!!!rhy2: X_.X  X_.XX_X_  X_0
!!!key: R0046  16  C 2/4 ]  ZZ[4
!!!mod: SECHSTONSKALA DUR ?]  AMBITUS[6
!!!kad: 6561
!!!akz: 56_65_322_31_
!!!fot: 'a__b__as'bs"
!!!for: 'a__b__c__av_
!!!fok: '/__/__/__\__
!! PHRAS[VORWIEGEND AUFTAKTIG]
!!!fkt: ??, Ballade?
!! RUDEN, J.M.:
!! PR[45] 2K[0] 2G[6] 3K[2] 3G[4] 4A[2] 4Ü[0] 5A[4] 6K[0] 6G[0]
!! 7K[4] 7G[0] 8A[0] MEHR[0] SI[22] ABS[49] SR[6] SP[16]
!! ST[12] 2k[2] 2g[10] 3k[8] 3g[8] 4d[2] 4ü[0] 5d[0] 6k[2] 6g[0]
!! 7k[0] 7g[0] 8d[0] mehr[0] si[33] dm[-11] sr[12] sp[20]
!! 1F[26] 2F[32] 3F[24] 4F[0] LF[0] 2P[2] 3P[16] 4P[0] TRI[0] DF[5] AB[50]
!! TF[0] U3K[0] U3[0] U4[0] U4Ü[0] U5[6] U6K[0] U6[22] U7K[0] U7[4]
!! N1[34] N2K[0] N2[2] N3K[0] N3[12] N4[4] N4Ü[0] N5[16] N6K[0] N6[0]
!!!n7k: 0] N7[0] O1[0] O2K[0] O2[0] O3K[0] O3[0] HÖ[0
